X: 6
T:Donald MacLean's Farewell to Oban
M:2/4
L:1/16
C:A. MacNeill
R:March
K:A
A>B|"A"c2 B<A e2 f>e|"A"c<eA>B c2 a2|"D"f>ea>f "E"e<fA>c|"A"e>cB>A "E7"B
2 A
>B|!
"A"c2 B<A e2 f>e|"A"c<eA>B c2 a2|"D"f>ea>f "E"e<fA>B|"A"c2 A2 A2:||!
c>d|"A"e2 c>d c<ef>g|"D"a2 f>g "Bm"a3f|"A"f>ea>f "E"e<fA>c|"A"e>cB>A "E7
"B2
c>d
|!
"A"e2 c>d c<ef>g|"D"a2 f>g "Bm"a3f|"A"f>ea>f "E"e<fA>B|"A"c2 A2 A2:||!
A>B|"A"c<Ac>d e>Ad>e|"D"f>Ae>A "A"c2 f>g|"F#m"a>Ad>c f>Ac>d|"A"e>cB>A
 "E
7"B2 A>B|!
"A"c<Ac>d e>Ad>e|"D"f>Ae>A "A"c2 f>g|"F#m"a>aa>f "E"e<fA>B|"A"c2 A2 A
2:||!
c>d|"A"e2 a>e c2 a>e|"D"f>ga>f d2 a>f|"A"e2 f>e c2 A>c|1 "A"e>cB>A "E7"B
2 c>d|!
"A"e2 a>e c2 a>e|"D"f>ga>f d2 a2|"D"f>ea>f "E"e<fA>B|"A"c2 A2 A2:||!
|2 |"A"e>cB>A "E7"B2 A>B| "A"c<e"D"d<f "A"e>c"E"B>c|"D"d>cB<A "A"c2 a
2|"D"f>ea
>f "E"e<fA>B|"A"c2 A2 A2:||!
